src/icons/lock.svg

<svg xmlns="http://www.w3.org/2000/svg" width="512" height="512" viewBox="0 0 512 512">
    <path d="M376 179.5h-20v-40c0-55-45-100-100-100s-100 45-100 100v40h-20c-22.002 0-40 17.998-40 40v200c0 22.002 17.998 40 40 40h240c22.002 0 40-17.998 40-40v-200c0-22.002-17.998-40-40-40zm-120 182c-22.002 0-40-17.998-40-40s17.998-40 40-40 40 17.998 40 40-17.998 40-40 40zm62.002-182H193.998v-40c0-34.004 28.003-62.002 62.002-62.002 34.004 0 62.002 27.998 62.002 62.002v40z"/>
</svg>

<?xml version="1.0" encoding="UTF-8"?>
<svg width="512px" height="512px" viewBox="0 0 512 512" version="1.1" xmlns="http://www.w3.org/2000/svg" xmlns:xlink="http://www.w3.org/1999/xlink">
    <!-- Generator: Sketch 62 (91390) - https://sketch.com -->
    <title>lock</title>
    <desc>Created with Sketch.</desc>
    <g id="lock" stroke="none" stroke-width="1" fill="none" fill-rule="evenodd">
        <path d="M376,179.5 L356,179.5 L356,139.5 C356,84.5 311,39.5 256,39.5 C201,39.5 156,84.5 156,139.5 L156,179.5 L136,179.5 C113.998,179.5 96,197.498 96,219.5 L96,419.5 C96,441.502 113.998,459.5 136,459.5 L376,459.5 C398.002,459.5 416,441.502 416,419.5 L416,219.5 C416,197.498 398.002,179.5 376,179.5 Z M256,361.5 C233.998,361.5 216,343.502 216,321.5 C216,299.498 233.998,281.5 256,281.5 C278.002,281.5 296,299.498 296,321.5 C296,343.502 278.002,361.5 256,361.5 Z M318.002,179.5 L193.998,179.5 L193.998,139.5 C193.998,105.496 222.001,77.498 256,77.498 C290.004,77.498 318.002,105.496 318.002,139.5 L318.002,179.5 Z" id="Shape" fill="#000000" fill-rule="nonzero"></path>
    </g>
</svg>
